X: 99
T: the Silver Spire
M: 4/4
L: 1/8
Z: 2006 John Chambers <jc:trillian.mit.edu>
R: Reel
K: D
   A,2 \
| "D"D2FE DFAc | "D"dcde fdAF | "G"G2BG "D"F2DF | "Em"GEFD "A7"ECA,C |
| "D"D2FE DFAc | "D"dcde fdAF | "G"G2BG "D"FEDF | "A7"EA,CE "D"D2 :|
|: CB, \
| "A"A,B,CD  EFGE | "D"FDEF GABc | "Bm"dcBA Bcde | "E7"fdgf "A7"ecAc |
| "D"d2fd "A"c2ec | "G"BcdB "D"AFDF | "G"G2BG "D"FEDF | "A7"EA,CE "D"D2 :|

%%sep 2 1 500
%%sep 1 1 500

